!!!!SEGMENT: pl-wtm--r-2519--004_hertz-michal--kanon.krn
!!!cenid: 18xx:3088
!!!COM: Hertz, Michał
!!!COM-rismid: pe41023359
!!!CDT: 1844/09/28-~1918
!!!CNT: Polish
!!!OTL: Kanon [4]
!!!PDT:
!!!AGN:
!!!SMS-siglum: PL-Wtm
!!!SMS-shelfmark: R 2519
!!!SMS-shelfwork: 004 W
!!!SMS-variant:
!!!SMS-altvar:
!!!NIFC-rismid: 1001082119
!!!URL-scan: http://repozytorium.nifc.pl/skany/pl-wtm-nut--r2519
!!!ONB-nifc: UWAGA: 9 Kanonów num. 001-009. Skan 0009-0010
!!!AIN: 2 piano
!!!key: g
**kern	**kern
*part2	*part1
*staff2	*staff1
*I"[Fortepian]	*I"[Fortepian]
*I'	*I'
*Ipiano	*Ipiano
*ICklav	*ICklav
*clefF4	*clefG2
*Xkcancel	*Xkcancel
*k[b-e-]	*k[b-e-]
*g:	*g:
*M9/8	*M9/8
*>[A,B,B1,B,B2,C]	*>[A,B,B1,B,B2,C]
=1	=1
*>A	*>A
!!LO:TX:t=P:problem:all\left, middle, right:global
8D\L	8%9ryy
8G\	.
8F\J	.
8E-\L	.
8D\	.
8C\J	.
8BB-\L	.
8AA\	.
8GG\J	.
=2!|:	=2!|:
*>B	*>B
8BB-\L	8d/L
8E-\	8g/
8D\J	8f/J
4.r	8e-/L
.	8d/
.	8c/J
8GG/L	8B-/L
8FF/	8A/
8EE-/J	8G/J
=3	=3
8GG/L	8B-\L
8C/	8e-\
8BB-/J	8d\J
8AA/L	4.r
8GG/	.
8FF/J	.
8EE-/L	8G</L
8DD/	8F</
8CC/J	8E-</J
=4	=4
8EE-\L	8G</L
8AA\	8c</
8GG\J	8B-</J
!LO:N:vis=4	!
4.r	8A</L
.	8G</
.	8F</J
8C/L	8E-</L
8BB-/	8D</
8AA/J	8C</J
=5	=5
8GG\L	8E-</L
8FF\	8A</
8EE-\J	8G</J
4FF\	4.r<
8FF\	.
8FF\L	8c</L
8GG\	8B-</
8AA\J	8A</J
!!linebreak:original
=6	=6
4BB-/	8G</L
.	8F</
8C/	8E-</J
8D\L	4F</
8E-\	.
8D\J	8f\
4D\	8f\L
.	8g\
8C\	8a\J
=7	=7
8BB-\L	4b-\
8B-\	.
8A\J	8cc\
4G\	8dd\L
.	8ee-\
8F\	8dd\J
8F\L	4dd\
8G\	.
8A\J	8cc\
=8	=8
4B-\	8b-\L
.	8bb-\
8c\	8aa\J
4C\	4gg\
8D\	8ff\
4D\	8ff\L
.	8gg\
8E-\	8aa\J
=9	=9
!!LO:TX:a:B:t=I
*>B1	*>B1
!!LO:TX:t=P:problem:oznaczenie wolty (I) na środku taktu
8D\L	4bb-\
8G\	.
8F\J	8ccc\
8E-\L	4cc\
8D\	.
8C\J	8dd\
8BB-/L	4dd\
8AA/	.
8GG/J	8ee-\
=10:|!	=10:|!
!!LO:TX:a:B:t=II
*>B2	*>B2
!!LO:TX:t=P:problem:oznaczenie wolty (II) na środku taktu
8D\L	4bb-\
8BB-\	.
8AA\J	8ccc\
4A\	4cc\
8F\	8dd\
8F\L	4dd\
8D\	.
8C\J	8ee-\
!!linebreak:original
=11	=11
*>C	*>C
4BB-\	8dd\L
.	8b-\
8C\	8a\J
8D\L	4ff\
8E-\	.
8F\J	8dd\
4G\	8dd\L
.	8b-\
8c\	8a\J
=12	=12
8G\L	4b-\
8F\	.
!LO:TX:t=P:problem:wykreślony kasownik (?)	!
8E-\J	8cc\
4G\	8dd\L
.	8ee-\
8F\	8ff\J
8En\L	4gg\
8D\	.
8C\J	8ccc\
=13	=13
4C\	8gg\L
.	8ff\
!	!LO:TX:t=P:problem:wykreślony kasownik (?)
8C\	8ee-\J
4c\	4gg\
8A\	8ff\
8C\L	8een\L
8D\	8dd\
8En\J	8cc\J
=14	=14
8F\L	4cc\
8F\	.
8G\J	8cc\
8A\L	4ccc\
8B-\	.
8c\J	8aa\
4A\	8cc\L
.	8dd\
8G\	8een\J
=15	=15
8A\L	8ff\L
8c\	8ff\
8B-\J	8gg\J
8A\L	8aa\L
8G\	8bb-\
8A\J	8ccc\J
8A\L	4aa\
8c\	.
8B-\J	8gg\
!!pagebreak:original
=16	=16
4A\	8aa\L
.	8ccc\
8G\	8bb-\J
8F#X\L	8aa\L
8En\	8gg\
8F#\J	8aa\J
4F#\	8aa\L
.	8ccc\
8G\	8bb-\J
=17	=17
4.D\	4aa\
.	8gg\
4.d\	8ff#X\L
.	8een\
.	8ff#\J
4.D\	4ff#\
.	8gg\
=18	=18
8D\L	4.dd\
8G\	.
8F\J	.
8E-X\L	4.ddd\
8D\	.
8C\J	.
8BB-\L	4.dd\
8AA\	.
8GG\J	.
=19	=19
8BB-\L	8d/L
8E-\	8g/
8D\J	8f/J
4.r	8e-/L
.	8d/
.	8c/J
8GG/L	8B-/L
8FF/	8A/
8EE-/J	8G/J
=20	=20
8GG\L	8B-/L
8C\	8e-/
8BB-\J	8d/J
8AA/L	4.r
8GG/	.
8FF/J	.
8EE-/L	8G</L
8DD/	8F</
8CC/J	8E-</J
!!linebreak:original
=21	=21
8EE-/L	8G</L
8AA/	8c</
8GG/J	8B-</J
4.r	8A</L
.	8G</
.	8F</J
8C\L	8E-</L
8BB-\	8D</
8AA\J	8C</J
=22	=22
8GG\L	8E-</L
8FF#X\	8A</
8EEn\J	8G</J
!	!LO:N:vis=4
4FF#\	4.r<
8FF#\	.
8FF#\L	8c</L
8GG\	8B-</
8AA\J	8A</J
=23	=23
4BB-\	8G</L
.	8F#X</
8C\	8En</J
8D\L	4F#</
8E-X\	.
8D\J	8F#</
4D\	8F#</L
.	8G</
8C\	8A</J
=24	=24
*2\right	*
2.D\	4B-\
.	8c\
.	8d\L
.	8e-X\
.	8d\J
8D\L	4d\
8En\	.
8F#X\J	8c\
=25	=25
!LO:TX:t=P:problem:2.G poprawione na 1.G	!
1.G;<	1.B-;
==	==
*-	*-
!!!system-decoration: {(s1,s2)}
!!!RDF**kern: > = above
!!!RDF**kern: < = below
!!!RDF**kern: i = editorial accidental
!!!ENC: Katarzyna Serwa
!!!END: 2021-10-23
!!!ENC: Anastazja Marusiak
!!!END: 2021-10-22
